X:455
M:C
L:1/8
K:D
d>ef>d e>cd>A|FAA>B =c>dBA|d>ef>d e>cd>A|B>dA>F E>D B,2|
d>efd ec d/f/d/A/|F/G/A/B/ A/^G/A/B/ =c/B/c/d/ c/d/B/A/|d>ef>d e>c d/f/d/A/|
~Bd/c/ B/A/G/F/ G/F/E/D/ B,2||D2 D>F A/F/A/B/ A/B/d/A/|B>ABd e/d/e/f/ e/g/f/e/|

